icons/svgs/calendar-times-solid.svg

<svg width="24" height="24" viewBox="0 0 24 24" fill="none" xmlns="http://www.w3.org/2000/svg">
<path d="M8.25 2C8.91406 2 9.5 2.58594 9.5 3.25V4.5H14.5V3.25C14.5 2.58594 15.0469 2 15.75 2C16.4141 2 17 2.58594 17 3.25V4.5H18.875C19.8906 4.5 20.75 5.35938 20.75 6.375V8.25H3.25V6.375C3.25 5.35938 4.07031 4.5 5.125 4.5H7V3.25C7 2.58594 7.54688 2 8.25 2ZM3.25 9.5H20.75V20.125C20.75 21.1797 19.8906 22 18.875 22H5.125C4.07031 22 3.25 21.1797 3.25 20.125V9.5ZM15.1641 13.9141C15.5156 13.5625 15.5156 12.9766 15.1641 12.625C14.7734 12.2344 14.1875 12.2344 13.8359 12.625L12 14.4609L10.1641 12.625C9.77344 12.2344 9.1875 12.2344 8.83594 12.625C8.44531 12.9766 8.44531 13.5625 8.83594 13.9141L10.6719 15.75L8.83594 17.5859C8.44531 17.9766 8.44531 18.5625 8.83594 18.9141C9.1875 19.3047 9.77344 19.3047 10.1641 18.9141L12 17.0781L13.8359 18.9141C14.1875 19.3047 14.7734 19.3047 15.1641 18.9141C15.5156 18.5625 15.5156 17.9766 15.1641 17.5859L13.3281 15.75L15.1641 13.9141Z" fill="black"/>
</svg>

<svg xmlns="http://www.w3.org/2000/svg" width="24" height="24" fill="currentColor" class="icon-calendar-times-solid" viewBox="0 0 24 24">
  <mask id="a" width="18" height="20" x="3" y="2" maskUnits="userSpaceOnUse" style="mask-type:alpha">
    <path d="M8.25 2c.664 0 1.25.586 1.25 1.25V4.5h5V3.25c0-.664.547-1.25 1.25-1.25.664 0 1.25.586 1.25 1.25V4.5h1.875c1.016 0 1.875.86 1.875 1.875V8.25H3.25V6.375c0-1.016.82-1.875 1.875-1.875H7V3.25C7 2.586 7.547 2 8.25 2m-5 7.5h17.5v10.625c0 1.055-.86 1.875-1.875 1.875H5.125a1.85 1.85 0 0 1-1.875-1.875zm11.914 4.414a.92.92 0 0 0 0-1.289c-.39-.39-.976-.39-1.328 0L12 14.461l-1.836-1.836c-.39-.39-.976-.39-1.328 0a.856.856 0 0 0 0 1.29l1.836 1.835-1.836 1.836c-.39.39-.39.977 0 1.328.351.39.937.39 1.328 0L12 17.078l1.836 1.836c.351.39.937.39 1.328 0 .352-.352.352-.937 0-1.328l-1.836-1.836z"/>
  </mask>
  <g mask="url(#a)">
    <path d="M0 0h24v24H0z"/>
  </g>
</svg>
